X:28
T:Merry Blacksmith, The
M:C|
R:reel
Z:Vancouver
E:9
K:D
AB|d2 dA BAFA|ABdA BAFA|ABde fded|Beed egfe|*
d2 dA BAFA|~A2 FA BAFA|ABde fedB|AFEF D2:|*
fg|a2 ag ~f3 e|dedA BAFA|ABde f2ed|Beed efge|*
abag fgfe|d3 A BAFA|ABde fedB|AFEF D2:|**
\break
